; generated by PrusaSlicer 2.3.0+win64 on 2021-03-01 at 16:28:31 UTC

; 

; external perimeters extrusion width = 0.45mm
; perimeters extrusion width = 0.45mm
; infill extrusion width = 0.45mm
; solid infill extrusion width = 0.45mm
; top infill extrusion width = 0.40mm
; support material extrusion width = 0.30mm
; first layer extrusion width = 0.42mm

M73 P0 R59
M73 Q0 S59
M201 X1000 Y1000 Z200 E5000 ; sets maximum accelerations, mm/sec^2
M203 X200 Y200 Z12 E120 ; sets maximum feedrates, mm/sec
M204 P1250 R1250 T1250 ; sets acceleration (P, T) and retract acceleration (R), mm/sec^2
M205 X8.00 Y8.00 Z0.40 E4.50 ; sets the jerk limits, mm/sec
M205 S0 T0 ; sets the minimum extruding and travel feed rate, mm/sec
M107
;TYPE:Custom
M862.3 P "MK3S" ; printer model check
M862.1 P0.4 ; nozzle diameter check
M115 U3.9.2 ; tell printer latest fw version
G90 ; use absolute coordinates
M83 ; extruder relative mode
M104 S215 ; set extruder temp
M140 S60 ; set bed temp
M190 S60 ; wait for bed temp
M109 S215 ; wait for extruder temp
G28 W ; home all without mesh bed level
G80 ; mesh bed leveling
G1 Y-3.0 F1000.0 ; go outside print area
G92 E0.0
G1 X60.0 E9.0 F1000.0 ; intro line
G1 X100.0 E12.5 F1000.0 ; intro line
G92 E0.0
M221 S100

; Don't change E values below. Excessive value can damage the printer.
M907 E430 ; set extruder motor current
G21 ; set units to millimeters
G90 ; use absolute coordinates
M83 ; use relative distances for extrusion
M900 K0.05 ; Filament gcode LA 1.5
M900 K30 ; Filament gcode LA 1.0
;LAYER_CHANGE
;Z:0.2
;HEIGHT:0.2
;BEFORE_LAYER_CHANGE
G92 E0.0
;0.2


G1 E-0.80000 F2100.000
G1 Z0.400 F10800.000
;AFTER_LAYER_CHANGE
;0.2
G1 X115.025 Y100.059
G1 Z0.200
G1 E0.80000 F2100.000
M204 S500
;TYPE:Skirt
;WIDTH:0.42
G1 F1200.000
G1 X115.716 Y99.525 E0.02739
G1 X119.441 Y97.648 E0.13078
G1 X119.941 Y97.476 E0.01656
G1 X120.464 Y97.402 E0.01656
G1 X129.104 Y97.230 E0.27095
G1 X130.568 Y97.444 E0.04641
G1 X131.080 Y97.589 E0.01669
G1 X134.873 Y99.487 E0.13297
G1 X135.614 Y100.036 E0.02892
G1 X136.131 Y100.800 E0.02892
G1 X137.698 Y104.516 E0.12647
G1 X137.873 Y105.235 E0.02320
G1 X137.888 Y115.219 E0.31302
G1 X137.729 Y116.106 E0.02828
G1 X136.136 Y119.785 E0.12567
G1 X135.597 Y120.543 E0.02917
G1 X134.899 Y121.048 E0.02701
G1 X130.867 Y122.941 E0.13966
G1 X129.956 Y123.132 E0.02917
G1 X120.857 Y123.303 E0.28536
G1 X119.883 Y123.145 E0.03094
G1 X115.697 Y121.014 E0.14728
G1 X115.050 Y120.529 E0.02536
G1 X114.523 Y119.781 E0.02866
G1 X112.948 Y116.150 E0.12413
G1 X112.772 Y115.187 E0.03069
G1 X112.772 Y105.481 E0.30433
G1 X112.932 Y104.597 E0.02816
G1 X114.533 Y100.791 E0.12947
G1 X114.992 Y100.109 E0.02577
M204 S1000
G1 X115.301 Y100.317 F10800.000
M204 S500
G1 F1200.000
G1 X115.904 Y99.852 E0.02387
G1 X119.611 Y97.985 E0.13015
G1 X120.492 Y97.778 E0.02837
G1 X129.103 Y97.607 E0.27004
G1 X130.558 Y97.826 E0.04613
G1 X131.143 Y98.030 E0.01941
G1 X134.895 Y99.933 E0.13190
G1 X135.421 Y100.385 E0.02178
G1 X135.794 Y100.967 E0.02166
G1 X137.345 Y104.648 E0.12523
G1 X137.498 Y105.275 E0.02024
G1 X137.511 Y115.208 E0.31147
G1 X137.369 Y115.992 E0.02496
G1 X135.800 Y119.614 E0.12377
G1 X135.328 Y120.278 E0.02555
G1 X134.721 Y120.715 E0.02343
G1 X130.721 Y122.594 E0.13857
G1 X129.934 Y122.756 E0.02520
G1 X120.850 Y122.926 E0.28488
G1 X119.998 Y122.785 E0.02708
G1 X115.880 Y120.684 E0.14496
G1 X115.317 Y120.263 E0.02201
G1 X114.858 Y119.609 E0.02508
G1 X113.297 Y116.008 E0.12303
G1 X113.149 Y115.184 E0.02626
G1 X113.149 Y105.491 E0.30392
G1 X113.291 Y104.712 E0.02484
G1 X114.873 Y100.953 E0.12784
G1 X115.268 Y100.367 E0.02217
M204 S1000
; printing object vase4.stl id:0 copy 0
;WIPE_START
G1 F8640.000
G1 X115.904 Y99.852 E-0.18896
G1 X118.113 Y98.740 E-0.57104
;WIPE_END
G1 E-0.04000 F2100.000
G1 Z0.600 F10800.000
G1 X129.101 Y99.984
G1 Z0.200
G1 E0.80000 F2100.000
M204 S500
;TYPE:Support material
G1 F1200.000
G1 X129.101 Y105.908 E0.18573
G1 X128.347 Y105.908 E0.02365
G1 X128.347 Y100.154 E0.18041
G1 X127.593 Y100.154 E0.02365
G1 X127.593 Y105.908 E0.18041
G1 X126.838 Y105.908 E0.02365
G1 X126.838 Y100.154 E0.18041
G1 X126.084 Y100.154 E0.02365
G1 X126.084 Y105.908 E0.18041
G1 X125.330 Y105.908 E0.02365
G1 X125.330 Y100.154 E0.18041
G1 X124.576 Y100.154 E0.02365
G1 X124.576 Y105.908 E0.18041
G1 X123.822 Y105.908 E0.02365
G1 X123.822 Y100.154 E0.18041
G1 X123.068 Y100.154 E0.02365
G1 X123.068 Y105.908 E0.18041
G1 X122.314 Y105.908 E0.02365
G1 X122.314 Y100.154 E0.18041
G1 X121.559 Y100.154 E0.02365
G1 X121.559 Y105.908 E0.18041
G1 X121.293 Y105.908 E0.00835
G1 X121.051 Y106.150 E0.01074
G1 X121.051 Y114.242 E0.25374
G1 X121.293 Y114.485 E0.01074
G1 X121.559 Y114.485 E0.00835
G1 X121.559 Y120.380 E0.18484
G1 X122.314 Y120.380 E0.02365
G1 X122.314 Y114.485 E0.18484
G1 X123.068 Y114.485 E0.02365
G1 X123.068 Y120.380 E0.18484
G1 X123.822 Y120.380 E0.02365
G1 X123.822 Y114.485 E0.18484
G1 X124.576 Y114.485 E0.02365
G1 X124.576 Y120.380 E0.18484
G1 X125.330 Y120.380 E0.02365
G1 X125.330 Y114.485 E0.18484
G1 X126.084 Y114.485 E0.02365
G1 X126.084 Y120.380 E0.18484
G1 X126.838 Y120.380 E0.02365
G1 X126.838 Y114.485 E0.18484
G1 X127.593 Y114.485 E0.02365
G1 X127.593 Y120.380 E0.18484
G1 X128.347 Y120.380 E0.02365
G1 X128.347 Y114.485 E0.18484
G1 X129.101 Y114.485 E0.02365
G1 X129.101 Y120.380 E0.18484
G1 X129.855 Y120.380 E0.02365
G1 X129.855 Y100.154 E0.63418
G1 X130.075 Y100.154 E0.00691
G1 X130.075 Y101.943 E0.05610
G1 X130.609 Y101.943 E0.01674
G1 X130.609 Y118.591 E0.52198
G1 X131.363 Y118.591 E0.02365
G1 X131.363 Y101.943 E0.52198
G1 X132.118 Y101.943 E0.02365
G1 X132.118 Y118.591 E0.52198
G1 X132.872 Y118.591 E0.02365
G1 X132.872 Y101.943 E0.52198
G1 X133.626 Y101.943 E0.02365
G1 X133.626 Y118.591 E0.52198
G1 X133.654 Y118.591 E0.00088
G1 X133.654 Y115.012 E0.11220
G1 X134.380 Y115.012 E0.02277
G1 X134.380 Y105.522 E0.29757
G1 X135.134 Y105.522 E0.02365
G1 X135.134 Y115.182 E0.30289
M204 S1000
;WIPE_START
G1 F8640.000
G1 X135.134 Y111.890 E-0.76000
;WIPE_END
G1 E-0.04000 F2100.000
G1 Z0.600 F10800.000
G1 X120.805 Y120.550
G1 Z0.200
G1 E0.80000 F2100.000
M204 S500
G1 F1200.000
G1 X120.805 Y100.154 E0.63950
G1 X120.585 Y100.154 E0.00691
G1 X120.585 Y101.943 E0.05610
G1 X120.051 Y101.943 E0.01674
G1 X120.051 Y118.591 E0.52198
G1 X119.297 Y118.591 E0.02365
G1 X119.297 Y101.943 E0.52198
G1 X118.543 Y101.943 E0.02365
G1 X118.543 Y118.591 E0.52198
M73 P1 R59
M73 Q1 S59
G1 X117.789 Y118.591 E0.02365
G1 X117.789 Y101.943 E0.52198
G1 X117.034 Y101.943 E0.02365
G1 X117.034 Y118.591 E0.52198
G1 X117.006 Y118.591 E0.00088
G1 X117.006 Y115.012 E0.11220
G1 X116.280 Y115.012 E0.02277
G1 X116.280 Y105.522 E0.29757
G1 X115.526 Y105.522 E0.02365
G1 X115.526 Y115.182 E0.30289
M204 S1000
;WIPE_START
G1 F8640.000
G1 X115.526 Y111.890 E-0.76000
;WIPE_END
G1 E-0.04000 F2100.000
G1 Z0.600 F10800.000
G1 X122.629 Y112.907
G1 Z0.200
G1 E0.80000 F2100.000
M204 S500
;TYPE:Perimeter
G1 F1200.000
G1 X122.629 Y107.485 E0.16999
G1 X128.050 Y107.485 E0.16999
G1 X128.050 Y112.907 E0.16999
G1 X122.689 Y112.907 E0.16811
M204 S1000
G1 X122.251 Y113.284 F10800.000
M204 S500
G1 F1200.000
G1 X122.251 Y107.108 E0.19364
G1 X128.427 Y107.108 E0.19364
G1 X128.427 Y113.284 E0.19364
G1 X122.311 Y113.284 E0.19176
M204 S1000
G1 X121.874 Y113.661 F10800.000
M204 S500
;TYPE:External perimeter
G1 F1200.000
G1 X121.874 Y106.731 E0.21729
G1 X128.804 Y106.731 E0.21729
G1 X128.804 Y113.661 E0.21729
G1 X121.934 Y113.661 E0.21540
M204 S1000
G1 X121.978 Y113.275 F10800.000
;WIPE_START
G1 F8640.000
G1 X121.906 Y110.370 E-0.76000
;WIPE_END
G1 E-0.04000 F2100.000
G1 Z0.600 F10800.000
G1 X127.148 Y107.598
G1 Z0.200
G1 E0.80000 F2100.000
M204 S500
;TYPE:Solid infill
;WIDTH:0.432436
G1 F1200.000
G1 X127.767 Y108.217 E0.02835
G1 X127.767 Y108.768 E0.01784
G1 X126.767 Y107.768 E0.04581
G1 X126.216 Y107.768 E0.01784
G1 X127.767 Y109.319 E0.07104
G1 X127.767 Y109.870 E0.01784
G1 X125.666 Y107.768 E0.09627
G1 X125.115 Y107.768 E0.01784
G1 X127.767 Y110.421 E0.12151
G1 X127.767 Y110.972 E0.01784
G1 X124.564 Y107.768 E0.14674
G1 X124.013 Y107.768 E0.01784
G1 X127.767 Y111.522 E0.17197
G1 X127.767 Y112.073 E0.01784
G1 X123.462 Y107.768 E0.19720
G1 X122.911 Y107.768 E0.01784
G1 X127.767 Y112.624 E0.22243
G1 X127.216 Y112.624 E0.01784
G1 X122.911 Y108.319 E0.19719
G1 X122.911 Y108.870 E0.01784
G1 X126.666 Y112.624 E0.17196
G1 X126.115 Y112.624 E0.01784
G1 X122.911 Y109.421 E0.14673
G1 X122.911 Y109.972 E0.01784
G1 X125.564 Y112.624 E0.12150
G1 X125.013 Y112.624 E0.01784
G1 X122.911 Y110.522 E0.09627
G1 X122.911 Y111.073 E0.01784
G1 X124.462 Y112.624 E0.07104
G1 X123.911 Y112.624 E0.01784
G1 X122.911 Y111.624 E0.04580
G1 X122.911 Y112.175 E0.01784
G1 X123.530 Y112.794 E0.02835
M204 S1000
; stop printing object vase4.stl id:0 copy 0
M106 S84.15
;LAYER_CHANGE
;Z:0.25
;HEIGHT:0.05
;BEFORE_LAYER_CHANGE
G92 E0.0
;0.25


;WIPE_START
G1 F8640.000
G1 X122.911 Y112.175 E-0.20208
G1 X122.911 Y111.624 E-0.12719
G1 X123.911 Y112.624 E-0.32655
G1 X124.362 Y112.624 E-0.10418
;WIPE_END
G1 E-0.04000 F2100.000
G1 Z0.600 F10800.000
;AFTER_LAYER_CHANGE
;0.25
G1 X119.883 Y123.145
G1 Z0.250
G1 E0.80000 F2100.000
;TYPE:Skirt
;WIDTH:0.42
G1 F1308
G1 X115.697 Y121.014 E0.03996
G1 X115.050 Y120.529 E0.00688
G1 X114.523 Y119.781 E0.00778
G1 X112.948 Y116.150 E0.03368
G1 X112.772 Y115.187 E0.00833
G1 X112.772 Y105.481 E0.08258
G1 X112.932 Y104.597 E0.00764
G1 X114.533 Y100.791 E0.03513
G1 X115.025 Y100.059 E0.00750
G1 X115.716 Y99.525 E0.00743
G1 X119.441 Y97.648 E0.03549
G1 X119.941 Y97.476 E0.00449
G1 X120.464 Y97.402 E0.00449
G1 X129.104 Y97.230 E0.07352
G1 X130.568 Y97.444 E0.01259
G1 X131.080 Y97.589 E0.00453
G1 X134.873 Y99.487 E0.03608
G1 X135.614 Y100.036 E0.00785
G1 X136.131 Y100.800 E0.00785
G1 X137.698 Y104.516 E0.03432
G1 X137.873 Y105.235 E0.00629
G1 X137.888 Y115.219 E0.08494
M73 P1 R58
G1 X137.729 Y116.106 E0.00767
G1 X136.136 Y119.785 E0.03410
G1 X135.597 Y120.543 E0.00791
G1 X134.899 Y121.048 E0.00733
G1 X130.867 Y122.941 E0.03790
G1 X129.956 Y123.132 E0.00791
G1 X120.857 Y123.303 E0.07743
G1 X119.942 Y123.154 E0.00789
G1 X120.003 Y122.786 F10800.000
G1 F1308
G1 X115.880 Y120.684 E0.03938
G1 X115.317 Y120.263 E0.00597
G1 X114.858 Y119.609 E0.00681
G1 X113.297 Y116.008 E0.03338
G1 X113.149 Y115.184 E0.00712
G1 X113.149 Y105.491 E0.08247
G1 X113.291 Y104.712 E0.00674
G1 X114.873 Y100.953 E0.03469
G1 X115.303 Y100.315 E0.00655
G1 X115.904 Y99.852 E0.00645
G1 X119.611 Y97.985 E0.03532
G1 X120.492 Y97.778 E0.00770
G1 X129.103 Y97.607 E0.07327
G1 X130.558 Y97.826 E0.01252
G1 X131.143 Y98.030 E0.00527
G1 X134.895 Y99.933 E0.03579
G1 X135.421 Y100.385 E0.00591
G1 X135.794 Y100.967 E0.00588
G1 X137.345 Y104.648 E0.03398
G1 X137.498 Y105.275 E0.00549
G1 X137.511 Y115.208 E0.08451
M73 Q1 S58
G1 X137.369 Y115.992 E0.00677
G1 X135.800 Y119.614 E0.03358
G1 X135.328 Y120.278 E0.00693
G1 X134.721 Y120.715 E0.00636
G1 X130.721 Y122.594 E0.03760
G1 X129.934 Y122.756 E0.00684
G1 X120.850 Y122.926 E0.07730
G1 X120.062 Y122.796 E0.00679
; printing object vase4.stl id:0 copy 0
;WIPE_START
G1 F8640.000
G1 X117.124 Y121.312 E-0.76000
;WIPE_END
G1 E-0.04000 F2100.000
G1 Z0.650 F10800.000
G1 X122.568 Y112.968
G1 Z0.250
G1 E0.80000 F2100.000
M204 S300
;TYPE:Perimeter
;WIDTH:0.45
G1 F1200.000
G1 X122.568 Y107.425 E0.05061
G1 X128.111 Y107.425 E0.05061
G1 X128.111 Y112.968 E0.05061
G1 X122.628 Y112.968 E0.05007
M204 S1000
G1 X122.129 Y113.407 F10800.000
M204 S300
G1 F1200.000
G1 X122.129 Y106.985 E0.05864
G1 X128.550 Y106.985 E0.05864
G1 X128.550 Y113.407 E0.05864
G1 X122.189 Y113.407 E0.05809
M204 S1000
G1 X121.689 Y113.846 F10800.000
M204 S300
;TYPE:External perimeter
G1 F1200.000
G1 X121.689 Y106.546 E0.06666
G1 X128.989 Y106.546 E0.06666
G1 X128.989 Y113.846 E0.06666
G1 X121.749 Y113.846 E0.06611
M204 S1000
G1 X121.793 Y113.460 F10800.000
;WIPE_START
G1 F8640.000
G1 X121.722 Y110.555 E-0.76000
;WIPE_END
G1 E-0.04000 F2100.000
G1 Z0.650 F10800.000
G1 X123.595 Y107.556
G1 Z0.250
G1 E0.80000 F2100.000
M204 S800
;TYPE:Solid infill
;WIDTH:0.453569
G1 F1308
G1 X122.897 Y108.254 E0.00908
G1 X122.897 Y108.880 E0.00577
G1 X124.024 Y107.754 E0.01466
G1 X124.650 Y107.754 E0.00577
G1 X122.897 Y109.507 E0.02282
G1 X122.897 Y110.133 E0.00577
G1 X125.276 Y107.754 E0.03097
G1 X125.902 Y107.754 E0.00577
G1 X122.897 Y110.759 E0.03912
G1 X122.897 Y111.385 E0.00577
G1 X126.529 Y107.754 E0.04728
G1 X127.155 Y107.754 E0.00577
G1 X122.897 Y112.012 E0.05543
G1 X122.897 Y112.638 E0.00577
G1 X127.781 Y107.754 E0.06358
G1 X127.781 Y108.380 E0.00576
G1 X123.524 Y112.638 E0.05543
G1 X124.150 Y112.638 E0.00577
G1 X127.781 Y109.007 E0.04728
G1 X127.781 Y109.633 E0.00577
G1 X124.776 Y112.638 E0.03912
G1 X125.402 Y112.638 E0.00577
G1 X127.781 Y110.259 E0.03097
G1 X127.781 Y110.885 E0.00577
G1 X126.029 Y112.638 E0.02282
G1 X126.655 Y112.638 E0.00577
G1 X127.781 Y111.512 E0.01467
G1 X127.781 Y112.138 E0.00577
G1 X127.083 Y112.836 E0.00909
M204 S1000
; stop printing object vase4.stl id:0 copy 0
M106 S170.85
;LAYER_CHANGE
;Z:0.3
;HEIGHT:0.05
;BEFORE_LAYER_CHANGE
G92 E0.0
;0.3


;WIPE_START
G1 F8640.000
G1 X127.781 Y112.138 E-0.22789
G1 X127.781 Y111.512 E-0.14461
G1 X126.655 Y112.638 E-0.36785
G1 X126.570 Y112.638 E-0.01966
;WIPE_END
G1 E-0.04000 F2100.000
G1 Z0.650 F10800.000
;AFTER_LAYER_CHANGE
;0.3
G1 X119.883 Y123.145
G1 Z0.300
G1 E0.80000 F2100.000
;TYPE:Skirt
;WIDTH:0.42
G1 F1311
G1 X115.697 Y121.014 E0.03996
G1 X115.050 Y120.529 E0.00688
G1 X114.523 Y119.781 E0.00778
G1 X112.948 Y116.150 E0.03368
G1 X112.772 Y115.187 E0.00833
G1 X112.772 Y105.481 E0.08258
G1 X112.932 Y104.597 E0.00764
G1 X114.533 Y100.791 E0.03513
G1 X115.025 Y100.059 E0.00750
G1 X115.716 Y99.525 E0.00743
G1 X119.441 Y97.648 E0.03549
G1 X119.941 Y97.476 E0.00449
G1 X120.464 Y97.402 E0.00449
G1 X129.104 Y97.230 E0.07352
G1 X130.568 Y97.444 E0.01259
G1 X131.080 Y97.589 E0.00453
G1 X134.873 Y99.487 E0.03608
G1 X135.614 Y100.036 E0.00785
G1 X136.131 Y100.800 E0.00785
G1 X137.698 Y104.516 E0.03432
G1 X137.873 Y105.235 E0.00629
G1 X137.888 Y115.219 E0.08494
G1 X137.729 Y116.106 E0.00767
G1 X136.136 Y119.785 E0.03410
G1 X135.597 Y120.543 E0.00791
G1 X134.899 Y121.048 E0.00733
G1 X130.867 Y122.941 E0.03790
G1 X129.956 Y123.132 E0.00791
G1 X120.857 Y123.303 E0.07743
G1 X119.942 Y123.154 E0.00789
G1 X120.003 Y122.786 F10800.000
G1 F1311
G1 X115.880 Y120.684 E0.03938
G1 X115.317 Y120.263 E0.00597
G1 X114.858 Y119.609 E0.00681
G1 X113.297 Y116.008 E0.03338
G1 X113.149 Y115.184 E0.00712
G1 X113.149 Y105.491 E0.08247
G1 X113.291 Y104.712 E0.00674
G1 X114.873 Y100.953 E0.03469
G1 X115.303 Y100.315 E0.00655
G1 X115.904 Y99.852 E0.00645
G1 X119.611 Y97.985 E0.03532
G1 X120.492 Y97.778 E0.00770
G1 X129.103 Y97.607 E0.07327
G1 X130.558 Y97.826 E0.01252
G1 X131.143 Y98.030 E0.00527
M73 Q2 S58
G1 X134.895 Y99.933 E0.03579
G1 X135.421 Y100.385 E0.00591
G1 X135.794 Y100.967 E0.00588
G1 X137.345 Y104.648 E0.03398
M73 P2 R58
G1 X137.498 Y105.275 E0.00549
G1 X137.511 Y115.208 E0.08451
G1 X137.369 Y115.992 E0.00677
G1 X135.800 Y119.614 E0.03358
G1 X135.328 Y120.278 E0.00693
G1 X134.721 Y120.715 E0.00636
G1 X130.721 Y122.594 E0.03760
G1 X129.934 Y122.756 E0.00684
G1 X120.850 Y122.926 E0.07730
G1 X120.062 Y122.796 E0.00679
; printing object vase4.stl id:0 copy 0
;WIPE_START
G1 F8640.000
G1 X117.124 Y121.312 E-0.76000
;WIPE_END
G1 E-0.04000 F2100.000
G1 Z0.700 F10800.000
G1 X122.568 Y112.968
G1 Z0.300
G1 E0.80000 F2100.000
M204 S300
;TYPE:Perimeter
;WIDTH:0.45
G1 F1200.000
G1 X122.568 Y107.425 E0.05061
G1 X128.111 Y107.425 E0.05061
G1 X128.111 Y112.968 E0.05061
G1 X122.628 Y112.968 E0.05007
M204 S1000
G1 X122.129 Y113.407 F10800.000
M204 S300
G1 F1200.000
G1 X122.129 Y106.985 E0.05864
G1 X128.550 Y106.985 E0.05864
G1 X128.550 Y113.407 E0.05864
G1 X122.189 Y113.407 E0.05809
M204 S1000
G1 X121.689 Y113.846 F10800.000
M204 S300
;TYPE:External perimeter
G1 F1200.000
G1 X121.689 Y106.546 E0.06666
G1 X128.989 Y106.546 E0.06666
G1 X128.989 Y113.846 E0.06666
G1 X121.749 Y113.846 E0.06611
M204 S1000
G1 X121.793 Y113.460 F10800.000
;WIPE_START
G1 F8640.000
G1 X121.722 Y110.555 E-0.76000
;WIPE_END
